X: 71
T: The Mandarin Dance
R: jig
M: 6/8
L: 1/8
Z: 2012 John Chambers <jc:trillian.mit.edu>
B: Saml. Ann & Peter Thompson "Twenty Four Country Dances for the Year 1791", London 1791, p.36 #1
K: D
% - - - - - - - - - - - - - - - - - - - - - - - - -
|:\
D2A D2c | dcB AGF | G2B E2B | G2B E2B |\
D2A D2c | dcB AGF | GAB Adc | d3- d3 :|
|:\
A2a A2g | A2f ecA | (f/g/a)f ecA | (f/g/a)f ecA |\
(B/c/d)B AFD | (B/c/d)B A2g | fed edc d3 D3 :|
% - - - - - - - - Dance description - - - - - - - -
%%begintext align
%% Cast off 2 Cu: and turn .|.
%% cast up and turn :|.
%% Cross over two Cu: lead up one .|:
%% Right and Left :|:
%%endtext

%%sep 1 1 500
%%sep 1 1 500
